X:1
T:Carcassonne, 10.6.10.6
T:Carcassonne, 10.6.10.6
T:George Crawford Hugg, 1898
T:Public Domain Courtesy of the Cyber Hymnal™
C:George Crawford Hugg, 1898
Z:Public Domain
Z:Courtesy of the Cyber Hymnal™
%%score ( 1 2 ) ( 3 4 )
L:1/8
Q:1/4=98
M:4/4
K:F
V:1 treble 
V:2 treble 
V:3 bass 
V:4 bass 
V:1
 C2 [FA]>[FB] [FA]2 [FG]>F | D2 [DG]>[DA] [DB]4 | [CE]2 [CE]>[CD] C [CB]3 | [CA]6 z2 | %4
 C2 [FA]>[FB] x4 | [FA]2 [FG]>F x4 | D2 [DG]>[DA] [DB]4 | [CE]2 [CE]>[CD] C [CG]3 | [CF]6 z2 | %9
 [Fc]2 [Fc]>[FA] F [FA]2 z | [DG]2 [DG]>[DF] D [DG]2 z | [CE]2 [CE]>[CD] C [CB]2 z | [CA]6 z2 | %13
 [Fc]2 [Fc]>[FA] F [FA]2 z | [DG]2 [DG]>[DF] D [DG]2 z | [CE]2 [CE]>[CD] C [CG]2 z | [CF]6 z2 |] %17
V:2
 C2 x7/2 F/ x2 | D2 x6 | x4 C x3 | x8 | C2 x6 | x7/2 F/ x4 | D2 x6 | x4 C x3 | x8 | x4 F x3 | %10
 x4 D x3 | x4 C x3 | x8 | x4 F x3 | x4 D x3 | x4 C x3 | x8 |] %17
V:3
 [F,A,]2 [F,C]>[F,D] [F,C]2 [F,B,]>[F,A,] | [B,,B,]2 [B,,B,]>[A,,^F,] [G,,G,]4 | %2
 [C,G,]2 [C,G,]>[C,F,] [C,E,] [C,G,]3 | F,6 z2 | [F,A,]2 [F,C]>[F,D] [F,C]2 [F,B,]>[F,A,] | %5
 [B,,B,]2 [B,,B,]>[A,,^F,] [G,,G,]4 | [C,G,]2 [C,G,]>[C,F,] [C,E,] [C,B,]3 | [F,A,]6 z2 | %8
 [F,A,]2 [F,A,]>[F,C] [F,A,] [F,C]2 z | [B,,B,]2 [B,,B,]>[B,,B,] [B,,B,] [B,,B,]2 z | %10
 [C,G,]2 [C,G,]>[C,F,] [C,E,] [C,G,]2 z | F,6 z2 | [F,A,]2 [F,A,]>[F,C] [F,A,] [F,C]2 z | %13
 [B,,B,]2 [B,,B,]>[B,,B,] [B,,B,] [B,,B,]2 z | [C,G,]2 [C,G,]>[C,F,] [C,E,] [C,B,]2 z | %15
 [F,A,]6 z2 | x8 |] %17
V:4
 x8 | x8 | x8 | F,6 x2 | x8 | x8 | x8 | x8 | x8 | x8 | x8 | F,6 x2 | x8 | x8 | x8 | x8 | x8 |] %17

